MB--Text--Blue.svg

<svg height="21" viewBox="0 0 138 21" width="138" xmlns="http://www.w3.org/2000/svg"><path d="m18.902 25.67h1.82v18.33h-3.744v-10.14l-5.668 7.956-5.694-7.956v10.14h-3.718v-18.33h1.82l7.592 10.504zm15.912 4.212h3.614v14.118h-3.614v-1.04c-1.17.78-2.574 1.248-4.134 1.248-4.42 0-7.02-3.562-7.02-7.306 0-3.77 2.6-7.306 7.02-7.306 1.482 0 2.938.468 4.134 1.17zm0 9.88v-5.668c-.884-.754-2.132-1.222-3.484-1.222-2.574 0-4.186 1.924-4.186 4.03 0 2.132 1.638 4.056 4.186 4.056 1.378 0 2.6-.442 3.484-1.196zm6.084 3.094 1.352-2.678c1.742.754 3.068 1.144 4.836 1.144 1.664 0 2.314-.624 2.314-1.352 0-.806-.806-1.17-2.99-1.638-3.042-.676-5.252-1.664-5.252-4.394 0-2.548 2.106-4.316 5.382-4.316 2.21 0 3.978.52 5.512 1.144l-1.196 2.652c-1.378-.52-2.99-.91-4.394-.91-1.378 0-2.08.494-2.08 1.248 0 .78.858 1.144 3.12 1.612 3.276.676 5.174 1.82 5.174 4.394 0 2.678-2.054 4.446-5.668 4.446-2.444 0-4.03-.338-6.11-1.352zm23.062-7.462 5.226 8.606h-4.004l-3.614-5.772-2.73 2.626v3.146h-3.614v-19.604h3.614v11.544l6.032-6.058h4.238zm14.742-5.772c3.952 0 7.15 2.886 7.15 7.306 0 4.342-3.198 7.306-7.15 7.306-1.482 0-2.938-.416-4.108-1.118v.884h-3.614v-19.604h3.614v6.292c1.196-.65 2.6-1.066 4.108-1.066zm-.65 11.336c2.444 0 4.238-1.638 4.238-4.03 0-2.314-1.794-4.056-4.238-4.056-1.378 0-2.574.468-3.458 1.196v5.668c.884.754 2.106 1.222 3.458 1.222zm17.42-11.336c4.264 0 7.722 3.25 7.722 7.306 0 4.03-3.458 7.28-7.722 7.28s-7.722-3.25-7.722-7.28c0-4.056 3.458-7.306 7.722-7.306zm0 11.336c2.314 0 4.16-1.82 4.16-4.03 0-2.236-1.846-4.056-4.16-4.056-2.288 0-4.16 1.82-4.16 4.056 0 2.21 1.872 4.03 4.16 4.03zm17.316-11.336c4.264 0 7.722 3.25 7.722 7.306 0 4.03-3.458 7.28-7.722 7.28s-7.722-3.25-7.722-7.28c0-4.056 3.458-7.306 7.722-7.306zm0 11.336c2.314 0 4.16-1.82 4.16-4.03 0-2.236-1.846-4.056-4.16-4.056-2.288 0-4.16 1.82-4.16 4.056 0 2.21 1.872 4.03 4.16 4.03zm19.058-5.564 5.226 8.606h-4.004l-3.614-5.772-2.73 2.626v3.146h-3.614v-19.604h3.614v11.544l6.032-6.058h4.238z" fill="#1c68f3" transform="translate(0 -24)"/></svg>

<?xml version="1.0" encoding="UTF-8"?>
<svg width="138px" height="21px" viewBox="0 0 138 21" version="1.1" xmlns="http://www.w3.org/2000/svg" xmlns:xlink="http://www.w3.org/1999/xlink">
    <!-- Generator: Sketch 56.3 (81716) - https://sketch.com -->
    <title>MB--Text--White</title>
    <desc>Created with Sketch.</desc>
    <g id="Website" stroke="none" stroke-width="1" fill="none" fill-rule="evenodd">
        <g id="Maskbook-Website" transform="translate(-30.000000, -24.000000)" fill="#1C68F3" fill-rule="nonzero">
            <g id="Section-0">
                <g id="NavBar">
                    <g id="Inner" transform="translate(30.000000, 0.000000)">
                        <g id="maskbook--logotype">
                            <path d="M18.902,25.67 L20.722,25.67 L20.722,44 L16.978,44 L16.978,33.86 L11.31,41.816 L5.616,33.86 L5.616,44 L1.898,44 L1.898,25.67 L3.718,25.67 L11.31,36.174 L18.902,25.67 Z M34.814,29.882 L38.428,29.882 L38.428,44 L34.814,44 L34.814,42.96 C33.644,43.74 32.24,44.208 30.68,44.208 C26.26,44.208 23.66,40.646 23.66,36.902 C23.66,33.132 26.26,29.596 30.68,29.596 C32.162,29.596 33.618,30.064 34.814,30.766 L34.814,29.882 Z M34.814,39.762 L34.814,34.094 C33.93,33.34 32.682,32.872 31.33,32.872 C28.756,32.872 27.144,34.796 27.144,36.902 C27.144,39.034 28.782,40.958 31.33,40.958 C32.708,40.958 33.93,40.516 34.814,39.762 Z M40.898,42.856 L42.25,40.178 C43.992,40.932 45.318,41.322 47.086,41.322 C48.75,41.322 49.4,40.698 49.4,39.97 C49.4,39.164 48.594,38.8 46.41,38.332 C43.368,37.656 41.158,36.668 41.158,33.938 C41.158,31.39 43.264,29.622 46.54,29.622 C48.75,29.622 50.518,30.142 52.052,30.766 L50.856,33.418 C49.478,32.898 47.866,32.508 46.462,32.508 C45.084,32.508 44.382,33.002 44.382,33.756 C44.382,34.536 45.24,34.9 47.502,35.368 C50.778,36.044 52.676,37.188 52.676,39.762 C52.676,42.44 50.622,44.208 47.008,44.208 C44.564,44.208 42.978,43.87 40.898,42.856 Z M63.96,35.394 L69.186,44 L65.182,44 L61.568,38.228 L58.838,40.854 L58.838,44 L55.224,44 L55.224,24.396 L58.838,24.396 L58.838,35.94 L64.87,29.882 L69.108,29.882 L63.96,35.394 Z M78.702,29.622 C82.654,29.622 85.852,32.508 85.852,36.928 C85.852,41.27 82.654,44.234 78.702,44.234 C77.22,44.234 75.764,43.818 74.594,43.116 L74.594,44 L70.98,44 L70.98,24.396 L74.594,24.396 L74.594,30.688 C75.79,30.038 77.194,29.622 78.702,29.622 Z M78.052,40.958 C80.496,40.958 82.29,39.32 82.29,36.928 C82.29,34.614 80.496,32.872 78.052,32.872 C76.674,32.872 75.478,33.34 74.594,34.068 L74.594,39.736 C75.478,40.49 76.7,40.958 78.052,40.958 Z M95.472,29.622 C99.736,29.622 103.194,32.872 103.194,36.928 C103.194,40.958 99.736,44.208 95.472,44.208 C91.208,44.208 87.75,40.958 87.75,36.928 C87.75,32.872 91.208,29.622 95.472,29.622 Z M95.472,40.958 C97.786,40.958 99.632,39.138 99.632,36.928 C99.632,34.692 97.786,32.872 95.472,32.872 C93.184,32.872 91.312,34.692 91.312,36.928 C91.312,39.138 93.184,40.958 95.472,40.958 Z M112.788,29.622 C117.052,29.622 120.51,32.872 120.51,36.928 C120.51,40.958 117.052,44.208 112.788,44.208 C108.524,44.208 105.066,40.958 105.066,36.928 C105.066,32.872 108.524,29.622 112.788,29.622 Z M112.788,40.958 C115.102,40.958 116.948,39.138 116.948,36.928 C116.948,34.692 115.102,32.872 112.788,32.872 C110.5,32.872 108.628,34.692 108.628,36.928 C108.628,39.138 110.5,40.958 112.788,40.958 Z M131.846,35.394 L137.072,44 L133.068,44 L129.454,38.228 L126.724,40.854 L126.724,44 L123.11,44 L123.11,24.396 L126.724,24.396 L126.724,35.94 L132.756,29.882 L136.994,29.882 L131.846,35.394 Z" id="Maskbook"></path>
                        </g>
                    </g>
                </g>
            </g>
        </g>
    </g>
</svg>
